X:1
T:Där borta
T:Wilhelm Stenhammar (1871-1927)
T:Norrland
T:©PA Aglert Edition may be freely distributed, duplicated, performed and recorded
T:©PA Aglert Edition may be freely distributed, duplicated, performed and recorded
T:©PA Aglert Edition may be freely distributed, duplicated, performed and recorded
T:©PA Aglert Edition may be freely distributed, duplicated, performed and recorded
T:©PA Aglert Edition may be freely distributed, duplicated, performed and recorded
T:©PA Aglert Edition may be freely distributed, duplicated, performed and recorded
C:Ludvig Norman (1831-1885)
Z:©PA Aglert
Z:Edition may be freely distributed, duplicated, performed and recorded
%%score [ 1 2 3 4 ]
L:1/8
Q:1/4=120
M:4/4
K:Ab
V:1 treble nm="S"
V:2 treble nm="A"
V:3 treble-8 nm="T"
V:4 bass nm="B"
V:1
"^Högtidligt"!f! E6 C2 | B,2 A,2 C2 E2 | c8 | B4"^meno" c2!f! B2 | F4 A4 | G6 F2 | F8- | F2 z2 z4 | %8
w: Vak- tat|av de vi- ta|fjäl-|lar och de|mör- ka|fu- rors|krans,||
!mf! F6 F2 | G2"^cresc." A2 B2 c2 | d8 | c6 z2 |!f!!>(! B8!>)! | A4!p!!<(! A2 A2!<)! | %14
w: vi- lar|nu i vå- rens|kväl-|lar|Norr-|land i sin|
!>(! B6 A2!>)! | A6 z2 |!mp! E6 C2 | F4 F4 | E6 C2 | F4 F2 z2 |"^cresc." !courtesy!_D6 D2 | %21
w: fäg- rings|glans.|Sa- go-|land där|äl- ven|blän- ker.|Sva- nen|
 E2 F2 _G2 B2 |!f!!>(! d8-!>)! | d4 z4 |!>(! !>!c6 B2!>)! | F4 F4 |!f!!>(! !>!c6 B2 | %27
w: glän- ser i det|blå.||Fram- tids-|land som|skat- ter|
 F4 F2!>)! z2 |!p!"^cresc. poco a poco" F6 G2 | G4- G2 z2 | A6 B2 | B4- B2 z2 |!f! c6 c2 | c4 =B4 | %34
w: skän- ker|tag, o|tag, *|tag, o|tag, *|tag vårt|löf- te|
 c8- | c2 z2 z4 |!f! E6 C2 | B,2 A,2 C2 E2 | c8 | B4 c2 B2 | F8 | z2 A2 G3 F | F8- | F2 z2 z4 | %44
w: då.||Ljus dit|upp vi vil- ja|spri-|da, od- la|byggd,|och bry- ta|mark,||
!mf! F6 F2 |!<(! G2 A2 B2!<)! c2 |!f! d8 | c4 c2 B2 | A4 A2 z2 | c6 B2 |!<(! B8-!<)! | B2 z2 z4 | %52
w: och vid|di- na äl- var|stri-|da stå som|skydds- vakt|stolt och|starkt.||
!f! E6 A,2 |!<(! A6!<)! E2 | z4!ff! c2 c2 | c4"^meno" B4 | F2!f! F2 A2 A2 | G6 F2 | F8- | %59
w: Norr- land,|Norr- land,|Du skall|to- na|rikt på ny- a|släk- tens|sång.|
 F2 z2 z4 |!mf! F6"^cresc." F2 | (G2 A2 B2) c2 |!ff! e6 d2 | c4 B2 z2 |!ff!!>(! c8!>)! | %65
w: |Och i|Sveri- * * ges|kun- ga-|kro- na|pär-|
 A4!p!!<(! A2 A2!<)! |!>(! B6!>)! A2 | !fermata!A6 z2 |] %68
w: lan var- der|du en|gång.|
V:2
!f! E6 C2 | B,2 A,2 C2 E2 | A8 | A4"^meno" G2!f! G2 | F4 F4 | E6 D2 | D8- | D2 z2 z4 |!mf! F6 F2 | %9
w: Vak- tat|av de vi- ta|fjäl-|lar och de|mör- ka|fu- rors|krans,||vi- lar|
 F2"^cresc." F2 F2 A2 | (A4 E4) | E6 z2 |!f!!>(! F8!>)! | F4!p!!<(! E2 E2!<)! |!>(! G6 E2!>)! | %15
w: nu i vå- rens|kväl- *|lar|Norr-|land i sin|fäg- rings|
 E6 z2 |!mp! C6 C2 | C4 C4 | C6 C2 | C4 C2 z2 |"^cresc." !courtesy!_D6 D2 | B,2 B,2 E2 _G2 | %22
w: glans.|Sa- go-|land där|äl- ven|blän- ker.|Sva- nen|glän- ser i det|
!f!!>(! (_G4 F4!>)! | _F4) z4 |!>(! !>!G6 G2!>)! | F4 F4 |!f!!>(! !>!=E6 C2 | D4 C2!>)! z2 | %28
w: blå. *||Fram- tids-|land som|skat- ter|skän- ker|
!p!"^cresc. poco a poco" (F8- | F4 E2) D2 | C4 (A4- | A4 G2) F2 |!f! E6 F2 | G4 G4 | G8- | %35
w: tag,|* * o|tag, tag,|* * o|tag vårt|löf- te|då.|
 G2 z2 z4 |!f! E6 C2 | B,2 A,2 C2 E2 | A8 | A4 G2 G2 | F8 | z2 F2 E3 D | D8- | D2 z2 z4 | %44
w: |Ljus dit|upp vi vil- ja|spri-|da, od- la|byggd,|och bry- ta|mark,||
!mf! F6 F2 |!<(! F2 F2 F2!<)! A2 |!f! (A4 B4) | A4 F2 F2 | F4 F2 z2 | [FA]6 [FA]2 |!<(! G8-!<)! | %51
w: och vid|di- na äl- var|stri- *|da stå som|skydds- vakt|stolt och|starkt.|
 G2 z2 z4 |!f! E6 A,2 |!<(! A6!<)! E2 | z4!ff! A2 A2 | G4"^meno" G4 | F2!f! F2 F2 F2 | =E6 C2 | %58
w: |Norr- land,|Norr- land,|Du skall|to- na|rikt på ny- a|släk- tens|
 C8- | C2 z2 z4 |!mf! F6"^cresc." F2 | E6 _G2 |!ff! _G6 F2 | =A4 B2 z2 | %64
w: sång.||Och i|Sveri- ges|kun- ga-|kro- na|
!ff!!>(! (!courtesy!_A6!>)! !courtesy!=G2) | F4!p!!<(! E2 E2!<)! |!>(! G6!>)! E2 | %67
w: pär- *|lan var- der|du en|
 !fermata!E6 z2 |] %68
w: gång.|
V:3
!f! e6 c2 | B2 A2 c2 e2 | =d8 | =d4"^meno" _d2!f! d2 | d4 c4 | B6 A2 | A8- | A2 z2 z4 |!mf! d6 d2 | %9
w: Vak- tat|av de vi- ta|fjäl-|lar och de|mör- ka|fu- rors|krans,||vi- lar|
 d2"^cresc." d2 d2 e2 | (d4 B4) | c6 z2 |!f!!>(! d8!>)! | c4!p!!<(! c2 c2!<)! |!>(! d6!>)! c2 | %15
w: nu i vå- rens|kväl- *|lar|Norr-|land i sin|fäg- rings|
 c6 z2 |!mp! A6 A2 | A4 A4 | A6 A2 | =A4 A2 z2 |"^cresc." B6 B2 | _G2 A2 B2 c2 |!f!!>(! A8-!>)! | %23
w: glans.|Sa- go-|land där|äl- ven|blän- ker.|Sva- nen|glän- ser i det|blå.|
 A4 z4 |!>(! !>!e6 d2!>)! | c4 c4 |!f!!>(! !>!A6 G2 | =A4 A2!>)! z2 | %28
w: |Fram- tids-|land som|skat- ter|skän- ker|
!p!"^cresc. poco a poco" (B8- | B4 c2) B2 | A4 (d4- | d4 e2) d2 |!f! c6 c2 | =d4 d4 | =e8- | %35
w: tag,|* * o|tag, tag,|* * o|tag vårt|löf- te|då.|
 e2 z2 z4 |!f! !courtesy!_e6 c2 | B2 A2 c2 e2 | =d8 | =d4 _d2 d2 | d8 | z2 c2 B3 A | A8- | %43
w: |Ljus dit|upp vi vil- ja|spri-|da, od- la|byggd,|och bry- ta|mark,|
 A2 z2 z4 |!mf! d6 d2 |!<(! d2 d2 d2!<)! e2 |!f! (d4 e4) | e4 e2 d2 | c4 c2 z2 | =d6 d2 | %50
w: |och vid|di- na äl- var|stri- *|da stå som|skydds- vakt|stolt och|
!<(! e8-!<)! | e2 z2 z4 |!f! e6 A2 |!<(! e6!<)! c2 | z4!ff! =d2 d2 | !courtesy!_d4"^meno" d4 | %56
w: starkt.||Norr- land,|Norr- land,|Du skall|to- na|
 d2!f! d2 c2 c2 | B6 =A2 | =A8- | A2 z2 z4 |!mf! B6"^cresc." B2 | (B2 A2 G2) e2 |!ff! c6 B2 | %63
w: rikt på ny- a|släk- tens|sång.||Och i|Sveri- * * ges|kun- ga-|
 _g4 f2 z2 |!ff!!>(! =e8!>)! | c4!p!!<(! c2 c2!<)! |!>(! d6!>)! c2 | !fermata!c6 z2 |] %68
w: kro- na|pär-|lan var- der|du en|gång.|
V:4
!f! E,6 C,2 | B,,2 A,,2 C,2 E,2 | F,8 | F,4"^meno" E,2!f! E,2 | [D,A,]4 F,4 | C,6 D,2 | D,8- | %7
w: Vak- tat|av de vi- ta|fjäl-|lar och de|mör- ka|fu- rors|krans,|
 D,2 z2 z4 |!mf! B,6 B,2 | B,2"^cresc." A,2 G,2 _G,2 | (F,4 !courtesy!=G,4) | A,6 z2 | %12
w: |vi- lar|nu i vå- rens|kväl- *|lar|
!f!!>(! B,8!>)! | F,4!p!!<(! C,2 C,2!<)! |!>(! E,6!>)! A,,2 | A,,6 z2 |!mp! A,4 G,4 | F,4 F,4 | %18
w: Norr-|land i sin|fäg- rings|glans.|Sa- go-|land där|
 A,4 _G,4 | F,4 F,2 z2 |"^cresc." _G,4 F,4 | E,2 E,2 E,2 E,2 |!f!!>(! D,8-!>)! | D,4 z4 | %24
w: äl- ven|blän- ker.|Sva- nen|glän- ser i det|blå.||
!>(! !>!E,6 E,2!>)! | A,4 A,4 |!f!!>(! !>!C,6 C,2 | F,4 E,2!>)! z2 |!p!"^cresc. poco a poco" (D,8 | %29
w: Fram- tids-|land som|skat- ter|skän- ker|tag,|
 E,8) | (F,8 | G,8) |!f! A,6 A,2 | G,4 G,4 | C,8- | C,2 z2 z4 |!f! E,6 C,2 | B,,2 A,,2 C,2 E,2 | %38
w: |tag,||tag vårt|löf- te|då.||Ljus dit|upp vi vil- ja|
 F,8 | F,4 E,2 E,2 | [D,A,]8 | z2 F,2 C,3 D, | D,8- | D,2 z2 z4 |!mf! B,6 B,2 | %45
w: spri-|da, od- la|byggd,|och bry- ta|mark,||och vid|
!<(! B,2 A,2 G,2!<)! _G,2 |!f! (F,4 !courtesy!=G,4) | A,4 D,2 D,2 | F,4 F,2 z2 | B,,6 B,,2 | %50
w: di- na äl- var|stri- *|da stå som|skydds- vakt|stolt och|
!<(! E,8-!<)! | E,2 z2 z4 | z8!f! |!<(! C6!<)! A,2 | z4!ff! F,2 F,2 | E,4"^meno" E,4 | %56
w: starkt.|||Norr- land,|Du skall|to- na|
 [D,A,]2!f! [D,A,]2 F,2 F,2 | C,6 F,2 | F,8- | F,2 z2 z4 |!mf! D,6"^cresc." D,2 | (D2 C2 B,2) A,2 | %62
w: rikt på ny- a|släk- tens|sång.||Och i|Sveri- * * ges|
!ff! =A,6 B,2 | E4 D2 z2 |!ff!!>(! C8!>)! | F,4!p!!<(! C,2 C,2!<)! |!>(! E,6!>)! [A,,A,]2 | %67
w: kun- ga-|kro- na|pär-|lan var- der|du en|
 !fermata![A,,A,]6 z2 |] %68
w: gång.|

